X: 25093
T: Maids Of Selma, The
R: jig
M: 6/8
K: Gmajor
{F}G2E E"roll"DE|"cut"GEG eg~e|d2B "cut"BAG|AcB ~AGF|
{F}G2E E"roll"DE|"cut"GEG eg~e|d2 {A}B "cut"BAG|1 (3ABc BAGF:|2 AB~A GBc||
dBd {f}"cut"g2f|{d}e"roll"de "cut"edB|dBd {f}g2a|bge "cut"edB|
dBd {f}"cut"g2f|{d}e"roll"de "cut"edB|dBd {f}g2a|b3 ab~a|
{f}"cut" g2 f efg|{e}"cut"f2e d2 B|c2B "cut"BAG|"cut"A3 ABA|
{F}G2E E"roll"DE|"cut"GEG eg~e|d2B "cut"BAG|ABA G2 F|

